!!!COM: Scriabin, Alexander
!!!OTL: Etude
!!!OPR: 12 Etudes
!!!OPS: 8
!!!ONM: 1
!!!ODT: 1894
!!!AGN: Etude
**kern	**kern	**dynam
*staff2	*staff1	*staff1
*Ipiano	*Ipiano	*Ipiano
*clefF4	*clefG2	*clefG2
*k[f#c#g#d#a#e#b#]	*k[f#c#g#d#a#e#b#]	*k[f#c#g#d#a#e#b#]
*met(C)	*met(C)	*met(C)
*M4/4	*M4/4	*M4/4
*MM168	*MM168	*MM168
4GG#\\ 4B#\\	12f#/ 12g#/L	p
.	12f#/ 12g#/	.
.	12ee#/J	.
=1	=1	=1
4C#\\ 4Bn\\	12e#/ 12g#/L	.
.	12e#/ 12g#/	.
.	12cc#/J	.\
4FF#/ 4A#/	12f#/ 12a#/L	.
.	12f#/ 12a#/	.
.	12dd#/J	.
4GG#/ 4G#/	12d#/ 12f#/L	.
.	12d#/ 12f#/	.
.	12b#/J	.
4C#\\ 4G#\\	12e#/ 12g#/L	.
.	12e#/ 12g#/	.
.	12cc#/J	.
=2	=2	=2
*^	*	*
(8c#/L	2D#\\	12d#/ 12g#/L	.
.	.	12d#/ 12g#/	.
8B#/J	.	.	.
.	.	12a#/J	.
8B#/L	.	12c#/ 12f##/L	.
.	.	12c#/ 12f##/	.
8A#/J	.	.	.
.	.	12dd#/J	.
4G#/)	4G#\\	12B#/ 12f#/L	.
.	.	12B#/ 12f#/	.
.	.	12dd#/J	.
4B#/	4GG#\\	12f#/ 12g#/L	.
.	.	12f#/ 12g#/	.
.	.	12ee#/J	.
*v	*v	*	*
=3	=3	=3
4C#\\ 4Bn\\	12e#/ 12g#/L	.
.	12e#/ 12g#/	.
.	12cc#/J	.
4FF#\\ 4A#\\	12en/ 12f#/L	.
.	12e/ 12f#/	.
.	12dd#/J	.
4BBn\\ 4An\\	12d#/ 12f#/L	.
.	12d#/ 12f#/	.
.	12bn/J	.
4EEn/ 4G#/	12dn/ 12e/L	.
.	12d/ 12e/	.
.	12cc#/J	.
=4	=4	=4
*^	*	*
4An/	4AAn\\	12c#/ 12en/L	.
.	.	12c#/ 12e/	.
.	.	12an/J	.
8En/L	4AA\\	12c#/ 12e/L	.
.	.	12c#/ 12e/	.
8E/J	.	.	.
.	.	12g#/J	.
4D#/	4AA#\\	12c#/ 12d#/L	.
.	.	12c#/ 12d#/	.
.	.	12f##/J	.
8BBB#/ 8BB#/L	4r	12G#/ 12d#/L	.
.	.	12G#/ 12d#/	.
8F#/J	.	.	.
.	.	12g#/J	.
*v	*v	*	*
=5	=5	=5
8CC#/ 8C#/L	12A#/ 12d#/L	.
.	12A#/ 12d#/	.
8F#/J	.	.
.	12a#/J	.
2F#\\ 2A#\\ 2f#\\	12e#/ 12a#/L	.
.	12e#/ 12a#/	.
.	12ee#/J	.
.	12d#/ 12a#/L	.
.	12d#/ 12a#/	.
.	12dd#/J	.
8BBB#/ 8BB#/L	12G#/ 12d#/L	.
.	12G#/ 12d#/	.
8F#/J	.	.
.	12g#/J	.
=6	=6	=6
*^	*	*
8CC#/ 8C#/L	2r	12A#/ 12d#/L	.
.	.	12A#/ 12d#/	.
8F#/J	.	.	.
.	.	12a#/J	.
2F#\\ 2A#\\ 2f#\\	.	12e#/ 12a#/L	.
.	.	12e#/ 12a#/	.
.	.	12ee#/J	.
.	4r	12d#/ 12a#/L	.
.	.	12d#/ 12a#/	.
.	.	12dd#/J	.
4F#/	4BB#\\	12G#/ 12d#/L	.
.	.	12G#/ 12d#/	.
.	.	12g#/J	.
=7	=7	=7	=7
2F#/	4BBn\\	12G##/ 12d#/L	.
.	.	12G##/ 12d#/	.
.	.	12g##/J	.
.	4AA#\\	12A#/ 12d#/L	.
.	.	12A#/ 12d#/	.
.	.	12a#/J	.
4d#/	2AA#\\ 2G#\\	12f#/ 12a#/L	.
.	.	12f#/ 12a#/	.
.	.	12ff#/J	.
4c##/	.	12e#/ 12a#/L	.
.	.	12e#/ 12a#/	.
.	.	12ee#/J	.
*v	*v	*	*
=8	=8	=8
2D#\\ 2A#\\ 2d#\\	12f#/ 12a#/L	.
.	12f#/ 12a#/	.
.	12dd#/J	.
.	12f#/ 12cc#/L	.
.	12f#/ 12cc#/	.
.	12dd#/J	.
4G#\\ 4d#\\	12f#/ 12b#/L	.
.	12f#/ 12b#/	.
.	12dd#/J	.
4GG#\\ 4B#\\	12f#/ 12g#/L	.
.	12f#/ 12g#/	.
.	12ee#/J	.
=9	=9	=9
4C#\\ 4Bn\\	12e#/ 12g#/L	.
.	12e#/ 12g#/	.
.	12cc#/J	.
4FF#/ 4A#/	12f#/ 12a#/L	.
.	12f#/ 12a#/	.
.	12dd#/J	.
4GG#/ 4G#/	12d#/ 12f#/L	.
.	12d#/ 12f#/	.
.	12b#/J	.
4C#\\ 4G#\\	12e#/ 12g#/L	.
.	12e#/ 12g#/	.
.	12cc#/J	.
=10	=10	=10
*^	*	*
(8c#/L	2D#\\	12d#/ 12g#/L	.
.	.	12d#/ 12g#/	.
8B#/J	.	.	.
.	.	12a#/J	.
4B#/	.	12c#/ 12f##/L	.
.	.	12c#/ 12f##/	.
.	.	12dd#/J	.
4G#/	4G#\\)	12B#/ 12f#/L	.
.	.	12B#/ 12f#/	.
.	.	12dd#/J	.
4B#/	4GG#\\	12f#/ 12g#/L	.
.	.	12f#/ 12g#/	.
.	.	12ee#/J	.
*v	*v	*	*
=11	=11	=11
4C#\\ 4Bn\\	12e#/ 12g#/L	.
.	12e#/ 12g#/	.
.	12cc#/J	.
4FF#/ 4A#/	12en/ 12f#/L	.
.	12e/ 12f#/	.
.	12dd#/J	.
4BBn\\ 4An\\	12d#/ 12f#/L	.
.	12d#/ 12f#/	.
.	12bn/J	.
4EEn/ 4G#/	12dn/ 12e/L	.
.	12d/ 12e/	.
.	12cc#/J	.
=12	=12	=12
*^	*	*
4AAn\\ 4An\\	4r	12c#/ 12en/L	.
.	.	12c#/ 12e/	.
.	.	12an/J	.
8En/L	4AA\\	12c#/ 12e/L	.
.	.	12c#/ 12e/	.
8E/J	.	.	.
.	.	12g#/J	.
4D#/	4AA#\\	12c#/ 12d#/L	.
.	.	12c#/ 12d#/	.
.	.	12f##/J	.
8BBB#/ 8BB#/L	4r	12G#/ 12d#/L	.
.	.	12G#/ 12d#/	.
8F#/J	.	.	.
.	.	12g#/J	.
*v	*v	*	*
=13	=13	=13
8CC#/ 8C#/L	12A#/ 12d#/L	.
.	12A#/ 12d#/	.
8F#/J	.	.
.	12a#/J	.
2F#\\ 2A#\\ 2f#\\	12e#/ 12a#/L	.
.	12e#/ 12a#/	.
.	12ee#/J	.
.	12d#/ 12a#/L	.
.	12d#/ 12a#/	.
.	12dd#/J	.
8DD#/ 8D#/L	12B#/ 12f#/ 12g#/L	.
.	12B#/ 12f#/ 12g#/	.
8G#/J	.	.
.	12b#/J	.
=14	=14	=14
*^	*	*
8EEn/ 8En/L	2r	12c#/ 12en/ 12an/L	.
.	.	12c#/ 12e/ 12a/	.
8An/J	.	.	.
.	.	12cc#/J	.
2c#/ 2an/	.	12f#/ 12cc#/L	.
.	.	12f#/ 12cc#/	.
.	.	12ff#/J	.
.	4r	12e/ 12cc#/L	.
.	.	12e/ 12cc#/	.
.	.	12een/J	.
[4A##/	[4En\\	12c##/ 12g#/L	.
.	.	12c##/ 12g#/	.
.	.	12cc##/J	.
=15	=15	=15	=15
4A##/]	4En\\]	12c##/ 12g#/L	.
.	.	12c##/ 12g#/	.
.	.	12cc##/J	.
4B#/	4D#\\	12d#/ 12g#/L	.
.	.	12g#/	.
.	.	12dd#/J	.
4g#/	2D#\\ 2c#\\	12b#\\ 12dd#\\L	.
.	.	12b#\\ 12dd#\\	.
.	.	12bb#\\J	.
4f##/	.	12a#\\ 12dd#\\L	.
.	.	12a#\\ 12dd#\\	.
.	.	12aa#\\J	.
=16	=16	=16	=16
2G#\\ 2f##\\	4c#/	12a#\\ 12dd#\\L	.
.	.	12a#\\ 12dd#\\	.
.	.	12aa#\\J	.
.	4d#/	12a#\\ 12ff##\\L	.
.	.	12a#\\ 12ff##\\	.
.	.	12aa#\\J	.
4G#\\ 4B#\\ 4g#\\	2r	12g#\\ 12dd#\\L	.
.	.	12g#\\ 12dd#\\	.
.	.	12gg#\\J	.
12G#\\ 12Bn\\L	.	(4dd#\\	.
12G#\\ 12B\\	.	.	.
12g#\\J	.	.	.
*v	*v	*	*
=17	=17	=17
12G#\\ 12d#\\L	4cc#\\	.
12G#\\ 12d#\\	.	.
12g#\\J	.	.
12D#\\ 12G#\\L	8bn/L	.
12D#\\ 12G#\\	.	.
.	8a#/J	.
12f#\\J	.	.
12BBn\\ 12G#\\L	8g#/L	.
12BB\\ 12G#\\	.	.
.	8d#/J	.
12d#\\J	.	.
12GG#\\ 12D#\\L	8e#/L	.
12GG#\\ 12D#\\	.	.
.	8f#/J	.
12Bn\\J	.	.
=18	=18	=18
12GG#\\ 12D#\\L	4f#^/	.
12GG#\\ 12D#\\	.	.
12Bn\\J	.	.
12FF#/ 12D#/L	2d#/)	.
12FF#/ 12D#/	.	.
12A#/J	.	.
12EE#/ 12D#/L	.	.
12EE#/ 12D#/	.	.
12G##/J	.	.
4FFF#/ 4FF#/	12A#/ 12d#/L	p
.	12A#/ 12d#/	.
.	12a#/J	.
=19	=19	=19
8FFF#/ 8FF#/L	12G##/ 12d#/L	.
.	12G##/ 12d#/	.
8EEE#/ 8EE#/J	.	.
.	12g##/J	.
4BBBn^/ 4BBn^/	12G#/ 12d#/L	.
.	12G#/ 12d#/	.
.	12g#/J	.
8BBB^/ 8BB^/L	12F#/ 12c##/L	.
.	12F#/ 12c##/	.
[8AAA#/ [8AA#/J	.	.
.	12f#/J	.
8AAA#/] 8AA#/L]	12E#/ 12c##/L	.
.	12E#/ 12c##/	.
8AA#/J	.	.
.	12e#/J	.
=20	=20	=20
4AAA#/ 4AA#/	12E#/ 12c##/L	.
.	12E#/ 12c##/	.
.	12e#/J	.
2DD#/ 2AA#/	12F#/ 12d#/L	.
.	12F#/ 12d#/	.
.	12f#/J	.
.	12F#/ 12A#/L	.
.	12F#/ 12A#/	.
.	12d#/J	.
12D#\\ 12A#\\L	(4aa#\\	.
12D#\\ 12A#\\	.	.
12f#\\J	.	.
*clefG2	*	*
=21	=21	=21
12d#/ 12a#/L	4gg#\\	.
12d#/ 12a#/	.	.
12dd#/J	.	.
12A#/ 12d#/L	8ff#\\L	.
12A#/ 12d#/	.	.
.	8ee#\\J	.
12cc#/J	.	.
12F#/ 12d#/L	8dd#\\L	.
12F#/ 12d#/	.	.
.	8a#\\J	.
12a#/J	.	.
*clefF4	*	*
12D#\\ 12A#\\L	8b#\\L	.
12D#\\ 12A#\\	.	.
.	8cc#\\J	.
12f#\\J	.	.
=22	=22	=22
12D#\\ 12A#\\L	4cc#\\	.
12D#\\ 12A#\\	.	.
12f#\\J	.	.
12C#\\ 12A#\\L	2a#/)	.
12C#\\ 12A#\\	.	.
12e#\\J	.	.
12BB#\\ 12A#\\L	.	.
12BB#\\ 12A#\\	.	.
12d##\\J	.	.
4CC#/ 4C#/	12e#/ 12a#/L	p
.	12e#/ 12a#/	.
.	12ee#/J	.
=23	=23	=23
8CC#/ 8C#/L	12d##/ 12a#/L	.
.	12d##/ 12a#/	.
8BBB#/ 8BB#/J	.	.
.	12dd##/J	.
4FF#/ 4F#/	12d#/ 12a#/L	.
.	12d#/ 12a#/	.
.	12dd#/J	.
8FF#/ 8F#/L	12c#/ 12g##/L	.
.	12g##/	.
[8EE#/ [8E#/J	.	.
.	12cc#/J	.
8EE#/] 8E#/L]	12B#/ 12g##/L	.
.	12B#/ 12g##/	.
8EE#/ 8E#/J	.	.
.	12b#/J	.
=24	=24	=24
4EE#/ 4E#/	12B#/ 12g##/L	.
.	12B#/ 12g##/	.
.	12b#/J	.
2AA#/ 2E#/	12c#/ 12a#/L	.
.	12c#/ 12a#/	.
.	12cc#/J	.
.	12c#/ 12e#/L	.
.	12c#/ 12e#/	.
.	12a#/J	.
12FF#/ 12C#/L	4a#\\ 4ff#\\ (4ccc#\\	mf
12FF#/ 12C#/	.	.
12F#/J	.	.
=25	=25	=25
*	*^	*
12FF#/ 12C#/L	4r	4g#\\ 4ff#\\ 4bbn\\	.
12FF#/ 12C#/	.	.	.
12F#/J	.	.	.
12C#\\ 12F#\\L	4r	8a#\\ 8ff#\\ 8aa#\\L	.
12C#\\ 12F#\\	.	.	.
.	.	8bn\\ 8cc#\\ 8gg#\\J	.
12c#\\J	.	.	.
12F#\\ 12c#\\L	8ff#/L	4a#\\ 4cc#\\	.
12F#\\ 12c#\\	.	.	.
.	8cc#/J	.	.
12f#\\J	.	.	.
12C#\\ 12F#\\L	8dd#/L	4an\\ 4cc#\\	.
12C#\\ 12F#\\	.	.	.
.	8ee#/J	.	.
12c#\\J	.	.	.
*	*v	*v	*
=26	=26	=26
12FF#/ 12C#/L	4g#\\ 4cc#\\ 4ee#\\	.
12FF#/ 12C#/	.	.
12G#/J	.	.
12C#\\ 12G#\\L	2e#/ 2g#/ 2cc#/)	.
12C#\\ 12G#\\	.	.
12c#\\J	.	.
12G#\\ 12c#\\L	.	.
12G#\\ 12c#\\	.	.
12e#\\J	.	.
12FF#/ 12BBn/L	4d#/ 4bn/ (4ff#/	.
12FF#/ 12BB/	.	.
12F#/J	.	.
=27	=27	=27
*	*^	*
12FF#/ 12BBn/L	4c##/ 4bn/ 4ee#/	4r	.
12FF#/ 12BB/	.	.	.
12F#/J	.	.	.
12BB\\ 12F#\\L	8d#/ 8b/ 8dd#/L	4r	.
12BB\\ 12F#\\	.	.	.
.	8e#/ 8f#/ 8cc#/J	.	.
12Bn\\J	.	.	.
12F#\\ 12B\\L	8b/L	4d#\\ 4f#\\	.
12F#\\ 12B\\	.	.	.
.	8f#/J	.	.
12f#\\J	.	.	.
12BB\\ 12F#\\L	8g#/L	4dn\\ 4f#\\	.
12BB\\ 12F#\\	.	.	.
.	8a#/J	.	.
12B\\J	.	.	.
=28	=28	=28	=28
12FF#/ 12C#/L	4c#/ 4f#/ 4a#/	2r	.
12FF#/ 12C#/	.	.	.
12F#/J	.	.	.
12C#\\ 12F#\\L	4.A#/ 4.f#/)	.	.
12C#\\ 12F#\\	.	.	.
12c#\\J	.	.	.
12C#\\ 12F#\\L	.	4r	.
12C#\\ 12F#\\	.	.	.
.	8f#/	.	.
12c#\\J	.	.	.
12FF#/ 12C#/L	(8g#/L	4c#\\ 4f#\\	.
12FF#/ 12C#/	.	.	.
.	8a#/J	.	.
12F#/J	.	.	.
=29	=29	=29	=29
12FF#/ 12C#/L	4c#/ 4f#/ 4a#/	4r	.
12FF#/ 12C#/	.	.	.
12F#/J	.	.	.
12C#\\ 12F#\\L	4.A#/ 4.f#/)	2r	.
12C#\\ 12F#\\	.	.	.
12c#\\J	.	.	.
12C#\\ 12F#\\L	.	.	.
12F#\\	.	.	.
.	(8a#/	.	.
12c#\\J	.	.	.
12FF##/ 12C#/L	8b#/L	4e#\\ 4a#\\	.
12FF##/ 12C#/	.	.	.
.	8cc#/J	.	.
12A#/J	.	.	.
=30	=30	=30	=30
12FF##/ 12C#/L	4e#/ 4a#/ 4cc#/	4r	pp
12FF##/ 12C#/	.	.	.
12A#/J	.	.	.
12E#\\ 12A#\\L	4.c#/ 4.a#/)	2r	.
12E#\\ 12A#\\	.	.	.
12e#\\J	.	.	.
12E#\\ 12A#\\L	.	.	.
12E#\\ 12A#\\	.	.	.
.	(8a#/	.	.
12e#\\J	.	.	.
12FF##/ 12C#/L	8b#/L	4e#\\ 4a#\\	.
12FF##/ 12C#/	.	.	.
.	8cc#/J	.	.
12A#/J	.	.	.
*	*v	*v	*
=31	=31	=31
*^	*	*
8c#/L	2GG#\\	12f#/ 12a#/L	.
.	.	12f#/ 12a#/	.
8D#/J	.	.	.
.	.	12ee#/J	.
4G#/	.	12f#/ 12b#/L	.
.	.	12f#/ 12b#/	.
.	.	12dd#/J	.
8A#/L	2GG#\\	12d#/ 12f#/L	.
.	.	12d#/ 12f#/	.
8D#/J	.	.	.
.	.	12cc#/J	.
4G#/	.	12d#/ 12f#/L	.
.	.	12d#/ 12f#/	.
.	.	12b#/J	.
*v	*v	*	*
=32	=32	=32
2.GG#/ 2.F#/	12B#/ 12d#/L	.
.	12B#/ 12d#/	.
.	12a#/J	.
.	12B#/ 12d#/L	.
.	12B#/ 12d#/	.
.	12f##/J	.
.	12B#/ 12d#/L	.
.	12B#/ 12d#/	.
.	12g#/J)	.
4GG#\\ 4B#\\	12f#/ 12g#/L	p
.	12f#/ 12g#/	.
.	12ee#/J	.
=33	=33	=33
4C#\\ 4Bn\\	12e#/ 12g#/L	.
.	12e#/ 12g#/	.
.	12cc#/J	.
4FF#/ 4A#/	12f#/ 12a#/L	.
.	12f#/ 12a#/	.
.	12dd#/J	.
4G#/	12d#/ 12f#/L	.
.	12d#/ 12f#/	.
.	12b#/J	.
4C#\\ 4G#\\	12e#/ 12g#/L	.
.	12e#/ 12g#/	.
.	12cc#/J	.
=34	=34	=34
*^	*	*
(8c#/L	2D#\\	12d#/ 12g#/L	.
.	.	12d#/ 12g#/	.
8B#/J	.	.	.
.	.	12a#/J	.
8B#/L	.	12c#/ 12f##/L	.
.	.	12c#/ 12f##/	.
8A#/J	.	.	.
.	.	12dd#/J	.
4G#/	4G#\\)	12B#/ 12f#/L	.
.	.	12B#/ 12f#/	.
.	.	12dd#/J	.
4B#/	4GG#\\	12f#/ 12g#/L	.
.	.	12f#/ 12g#/	.
.	.	12ee#/J	.
*v	*v	*	*
=35	=35	=35
4C#\\ 4Bn\\	12e#/ 12g#/L	.
.	12e#/ 12g#/	.
.	12cc#/J	.
4FF#/ 4A#/	12en/ 12f#/L	.
.	12e/ 12f#/	.
.	12dd#/J	.
4BBn\\ 4An\\	12d#/ 12f#/L	.
.	12d#/ 12f#/	.
.	12bn/J	.
4EEn/ 4G#/	12dn/ 12e/L	.
.	12d/ 12e/	.
.	12cc#/J	.
=36	=36	=36
*^	*	*
4r	4AAn\\ 4An\\	12c#/ 12en/L	.
.	.	12c#/ 12e/	.
.	.	12an/J	.
8En/L	4AA\\	12c#/ 12e/L	.
.	.	12c#/ 12e/	.
8E/J	.	.	.
.	.	12g#/J	.
4D#/	4AA#\\	12c#/ 12d#/L	.
.	.	12c#/ 12d#/	.
.	.	12f##/J	.
4r	8BBB#/ 8BB#/L	12G#/ 12d#/L	.
.	.	12G#/ 12d#/	.
.	8F#/J	.	.
.	.	12g#/J	.
*v	*v	*	*
=37	=37	=37
8CC#/ 8C#/L	12A#/ 12d#/L	.
.	12A#/ 12d#/	.
8F#/J	.	.
.	12a#/J	.
2F#^\\ 2A#^\\ 2f#^\\	12e#/ 12a#/L	.
.	12e#/ 12a#/	.
.	12ee#/J	.
.	12d#/ 12a#/L	.
.	12d#/ 12a#/	.
.	12dd#/J	.
8DD#/ 8D#/L	12B#/ 12g#/L	.
.	12B#/ 12g#/	.
8G#/J	.	.
.	12b#/J	.
=38	=38	=38
8EE#/ 8E#/L	12c#/ 12g#/ 12bn/L	.
.	12c#/ 12g#/ 12b/	.
8c#/J	.	.
.	12cc#/J	.
2c#^\\ 2bn^\\	12a#\\ 12cc#\\L	.
.	12a#\\ 12cc#\\	.
.	12aa#\\J	.
.	12g#\\ 12cc#\\L	.
.	12g#\\ 12cc#\\	.
.	12gg#\\J	.
8FF#/ 8F#/L	12a#\\ 12cc#\\L	.
.	12a#\\ 12cc#\\	.
8c#/J	.	.
.	12aa#\\J	.
=39	=39	=39
*^	*	*
8FF#\\ 8F#\\L	4.FF#/ 4.F#/	12a#\\ 12dd##\\L	f
.	.	12a#\\ 12dd##\\	.
8d##\\J	.	.	.
.	.	12aa#\\J	.
8B#\\ 8b#\\L	.	12a#\\ 12dd##\\L	.
.	.	12a#\\ 12dd##\\	.
8BB#\\J	8BB#/ 8B#/	.	.
.	.	12bb#\\J	.
8EE#\\L	4.EE#/ 4.E#/	12g#\\ 12dd#\\L	.
.	.	12g#\\ 12dd#\\	.
8d#\\J	.	.	.
.	.	12gg#\\J	.
8Bn\\ 8bn\\L	.	12g#\\ 12dd#\\L	.
.	.	12g#\\ 12dd#\\	.
8EE#\\J	8EE#/ 8E#/	.	.
.	.	12gg#\\J	.
=40	=40	=40	=40
4.AA#/ 4.A#/	8AA#\\L	12g#\\ 12cc##\\L	.
.	.	12g#\\ 12cc##\\	.
.	8e#\\J	.	.
.	.	12gg#\\J	.
.	8A#\\ 8a#\\L	12g#\\ 12cc##\\L	.
.	.	12g#\\ 12cc##\\	.
8AA#/ 8A#/	8AA#\\J	.	.
.	.	12aa#\\J	.
8D#/L	4DD#\\ 4D#\\	12f#/ 12a#/L	.
.	.	12f#/ 12a#/	.
8D#/ 8A#/ 8d#/J	.	.	.
.	.	12ff#/J	.
8F#/L	4FF#\\ 4F#\\	12a#/L	.
.	.	12d#/ 12a#/	.
8D#/ 8A#/ 8d#/J	.	.	.
.	.	12dd#/J	.
*v	*v	*	*
=41	=41	=41
8GG#\\ 8G#\\L	12g#\\ 12cc#\\L	.
.	12g#\\ 12cc#\\	.
8G#\\J	.	.
.	12gg#\\J	.
8E#\\ 8c#\\ 8e#\\L	12g#\\ 12cc#\\L	.
.	12g#\\ 12cc#\\	.
8E#\\J	.	.
.	12gg#\\J	.
8GG#\\ 8G#\\L	12an\\ 12cc#\\ 12ff##\\L	.
.	12a\\ 12cc#\\ 12ff##\\	.
[8An\\J	.	.
.	12aan\\J	.
8En\\ 8A\\] 8c#\\ 8f##\\L	12a\\ 12cc#\\ 12ff##\\L	.
.	12a\\ 12cc#\\ 12ff##\\	.
8E\\J	.	.
.	12aa\\J	.
=42	=42	=42
8GG#\\ 8G#\\L	12a#\\ 12cc#\\ 12ff##\\L	.
.	12a#\\ 12cc#\\ 12ff##\\	.
[8A#\\J	.	.
.	12aa#\\J	.
8D#\\ 8A#\\] 8c#\\ 8f##\\L	12a#\\ 12cc#\\ 12ff##\\L	.
.	12a#\\ 12cc#\\ 12ff##\\	.
8D#\\J	.	.
.	12aa#\\J	.
8GG#\\ 8G#\\L	12b#\\ 12ff#\\ 12gg#\\L	.
.	12b#\\ 12ff#\\ 12gg#\\	.
(8G#\\J	.	.
.	12bb#\\J	.
8D#\\ 8G#\\ 8B#\\) 8f#\\L	12b#\\ 12ff#\\ 12gg#\\L	.
.	12b#\\ 12ff#\\ 12gg#\\	.
8GG#\\ 8G#\\J	.	.
.	12bb#\\J	.
=43	=43	=43
4CC#/ 4C#/	4cc#\\ 4ee#\\ 4gg#\\ 4ccc#\\	.
4B#\\	12f#/ 12g#/L	p
.	12f#/ 12g#/	.
.	12ee#/J	.
4Bn\\	12e#/ 12g#/L	.
.	12e#/ 12g#/	.
.	12cc#/J	.
4A#\\	12en/ 12f#/L	.
.	12e/ 12f#/	.
.	12dd#/J	.
=44	=44	=44
*^	*	*
4r	4An\\	12d#/ 12f#/L	.
.	.	12d#/ 12f#/	.
.	.	12bn/J	.
4r	4G#\\	12dn/ 12e#/L	.
.	.	12d/ 12e#/	.
.	.	12cc#/J	.
4r	4F##\\	12c#/ 12e#/L	.
.	.	12c#/ 12e#/	.
.	.	12an/J	.
4G#^/	(8G#\\L	12B#/ 12f#/L	.
.	.	12B#/ 12f#/	.
.	8GG#\\J	.	.
.	.	12g#/J	.
*v	*v	*	*
=45	=45	=45
4C#\\ 4G#\\)	12c#/ 12e#/L	.
.	12c#/ 12e#/	.
.	12g#/J	.
4B#\\	12f#/ 12g#/L	.
.	12f#/ 12g#/	.
.	12ee#/J	.
4Bn\\	12e#/ 12g#/L	.
.	12e#/ 12g#/	.
.	12cc#/J	.
4A#\\	12en/ 12f#/L	.
.	12e/ 12f#/	.
.	12dd#/J	.
=46	=46	=46
*^	*	*
4r	4An\\	12d#/ 12f#/L	.
.	.	12d#/ 12f#/	.
.	.	12bn/J	.
4r	4G#\\	12dn/ 12en/L	.
.	.	12d/ 12e/	.
.	.	12cc#/J	.
4r	4F##\\	12c#/ 12e/L	.
.	.	12c#/ 12e/	.
.	.	12an/J	.
4G#^/	(8G#\\L	12B#/ 12f#/L	.
.	.	12B#/ 12f#/	.
.	8GG#\\J	.	.
.	.	12g#/J	.
=47	=47	=47	=47
4G#/)	4C#\\	12c#/ 12e#/L	.
.	.	12c#/ 12e#/	.
.	.	&(12g#/J&)	.
2r	2F##^\\	12c#/ 12en/L	.
.	.	12c#/ 12e/	.
.	.	12an/J	.
.	.	12c#/ 12e/L	.
.	.	12c#/ 12e/	.
.	.	12a/J	.
[4G#/	8G#\\L	12B#/ 12f#/L	.
.	.	12B#/ 12f#/	.
.	8GG#\\J	.	.
.	.	12g#/J	.
=48	=48	=48	=48
4r	4C#\\ 4G#\\]	12c#/ 12e#/L	.
.	.	12c#/ 12e#/	.
.	.	12g#/J	.
2r	2F##^\\	12c#/ 12en/L	.
.	.	12c#/ 12e/	.
.	.	12an/J	.
.	.	12c#/ 12e/L	.
.	.	12c#/ 12e/	.
.	.	12a/J	.
[4G#/	8G#\\L	12B#/ 12f#/L	.
.	.	12B#/ 12f#/	.
.	8GG#\\J	.	.
.	.	12g#/J	.
=49	=49	=49	=49
4C#\\	4G#/]	12c#/ 12e#/L	.
.	.	12c#/ 12e#/	.
.	.	12g#/J	.
12G#\\ 12c#\\L	4r	12e#/ 12g#/L	.
12G#\\ 12c#\\	.	12e#/ 12g#/	.
12C#\\J	.	12cc#/J	.
12c#\\ 12e#\\L	4r	12g#\\ 12cc#\\L	.
12c#\\ 12e#\\	.	12g#\\ 12cc#\\	.
12E#\\J	.	12ee#\\J	.
12e#\\ 12g#\\L	4r	12cc#\\ 12ee#\\L	.
12e#\\ 12g#\\	.	12cc#\\ 12ee#\\	.
12G#\\J	.	12gg#\\J	.
*v	*v	*	*
*clefG2	*	*
=50	=50	=50
12g#/ 12cc#/L	12e#/ 12g#/L	.
12g#/ 12cc#/	12e#/ 12g#/	.
12c#/J	12cc#/J	.
12cc#/ 12ee#/L	12g#\\ 12cc#\\L	.
12cc#/ 12ee#/	12g#\\ 12cc#\\	.
12e#/J	12ee#\\J	.
12ee#\\ 12gg#\\L	12cc#\\ 12ee#\\L	.
12ee#\\ 12gg#\\	12cc#\\ 12ee#\\	.
12g#\\J	12gg#\\J	.
12gg#\\ 12ccc#\\L	12ee#\\ 12gg#\\L	.
12gg#\\ 12ccc#\\	12ee#\\ 12gg#\\	.
12cc#\\J	12ccc#\\J	.
=51	=51	=51
4ee#\\ 4ccc#\\	4gg#\\ 4eee#\\	.
4r	4r	.
4cc#\\ 4aa#\\ 4ccc#\\	4g#\\ 4cc#\\ 4gg#\\	p
4r	4r	.
=52	=52	=52
1A# 1e# 1a#	1E# 1c#	.
==	==	==
*-	*-	*-
!!!ENC: Craig Stuart Sapp
!!!END: 2004/09/03/}
